Speka/assets/images/MapPin_small.svg

<svg width="36" height="35" viewBox="0 0 36 35" fill="none" xmlns="http://www.w3.org/2000/svg">
<path d="M17.7968 18.4135C20.254 18.4135 22.246 16.4737 22.246 14.0809C22.246 11.6881 20.254 9.74829 17.7968 9.74829C15.3396 9.74829 13.3477 11.6881 13.3477 14.0809C13.3477 16.4737 15.3396 18.4135 17.7968 18.4135Z" stroke="#F58220" stroke-width="2" stroke-linecap="round" stroke-linejoin="round"/>
<path d="M28.9192 14.0809C28.9192 23.8292 17.7963 31.4113 17.7963 31.4113C17.7963 31.4113 6.67334 23.8292 6.67334 14.0809C6.67334 11.2082 7.84522 8.45316 9.93117 6.42186C12.0171 4.39056 14.8463 3.24939 17.7963 3.24939C20.7462 3.24939 23.5754 4.39056 25.6613 6.42186C27.7473 8.45316 28.9192 11.2082 28.9192 14.0809V14.0809Z" stroke="#F58220" stroke-width="2" stroke-linecap="round" stroke-linejoin="round"/>
</svg>

<svg width="36" height="35" fill="none" xmlns="http://www.w3.org/2000/svg"><path d="M17.797 18.413c2.457 0 4.449-1.94 4.449-4.332 0-2.393-1.992-4.333-4.45-4.333-2.456 0-4.448 1.94-4.448 4.333 0 2.393 1.992 4.332 4.449 4.332z" stroke="#F58220" stroke-width="2" stroke-linecap="round" stroke-linejoin="round"/><path d="M28.92 14.08c0 9.75-11.124 17.331-11.124 17.331S6.673 23.83 6.673 14.081c0-2.873 1.172-5.628 3.258-7.66a11.277 11.277 0 017.865-3.172c2.95 0 5.78 1.142 7.865 3.173 2.086 2.031 3.258 4.786 3.258 7.659v0z" stroke="#F58220" stroke-width="2" stroke-linecap="round" stroke-linejoin="round"/></svg>
